icons/op-concept-24.svg

<svg width="24" height="24" viewBox="0 0 24 24" fill="none" xmlns="http://www.w3.org/2000/svg">
<path d="M12 8.64516C10.011 8.64516 8.51931 10.1935 8.51931 12.1613C8.51931 13.3871 9.10978 14.4194 10.1043 15.129V17H13.989V15.129C14.9834 14.5161 15.5739 13.3871 15.5739 12.1613C15.4807 10.2903 13.989 8.64516 12 8.64516ZM13.3053 14.6129V16.3871H10.6015V14.6129C9.70026 14.0968 9.20302 13.2903 9.20302 12.2581C9.20302 10.7097 10.5083 9.45161 12 9.45161C13.4917 9.45161 14.797 10.7097 14.797 12.2581C14.797 13.2903 14.1754 14.0968 13.3053 14.6129ZM12 7.51613C12.0932 7.51613 12.3108 7.3871 12.3108 7.19355V4.29032C12.3108 4.09677 12.1865 4 12 4C11.9068 4 11.6892 4.09677 11.6892 4.29032V7.09677C11.6892 7.3871 11.9068 7.51613 12 7.51613ZM14.5794 7.90323L16.0712 5.54839C16.1644 5.45161 16.1644 5.22581 16.0712 5.12903C15.9779 5.03226 15.7915 5.12903 15.6672 5.22581L14.1754 7.6129C14.0822 7.70968 14.0822 7.90323 14.1754 8.03226C14.2997 8.12903 14.4862 8.03226 14.5794 7.90323ZM18.9614 8.12903C18.8681 8.03226 18.7749 7.90323 18.5574 8.03226L16.1644 9.35484C16.0712 9.45161 15.9779 9.67742 16.0712 9.77419C16.1644 9.87097 16.2887 9.96774 16.4752 9.87097L18.8681 8.54839C18.9614 8.41935 19.0546 8.32258 18.9614 8.12903ZM9.42056 7.90323C9.51379 8.03226 9.70026 8.12903 9.82457 8.03226C9.9178 7.90323 9.9178 7.70968 9.82457 7.6129L8.33284 5.22581C8.20853 5.03226 8.02207 5.03226 7.92883 5.12903C7.8356 5.22581 7.8356 5.45161 7.92883 5.54839L9.42056 7.90323ZM5.44263 8.12903C5.22508 8.03226 5.03862 8.03226 5.03862 8.12903C4.94539 8.32258 5.03862 8.41935 5.13185 8.54839L7.52483 9.87097C7.71129 9.96774 7.8356 9.96774 7.92883 9.77419C8.02207 9.67742 7.92883 9.45161 7.8356 9.35484L5.44263 8.12903ZM13.989 17.3226H10.011V18.4516C10.011 19.0645 10.5083 19.4839 11.0055 19.4839V20H12.9945V19.4839C13.4917 19.4839 13.8957 19.0645 13.8957 18.5484V17.3226H13.989Z" fill="black"/>
</svg>

<svg xmlns="http://www.w3.org/2000/svg" width="24" height="24" viewBox="0 0 24 24"><path d="M12 8.645c-1.989 0-3.481 1.549-3.481 3.516 0 1.226.591 2.258 1.585 2.968V17h3.885v-1.871c.994-.613 1.585-1.742 1.585-2.968-.093-1.871-1.585-3.516-3.574-3.516Zm1.305 5.968v1.774h-2.704v-1.774c-.901-.516-1.398-1.323-1.398-2.355 0-1.548 1.305-2.806 2.797-2.806 1.492 0 2.797 1.258 2.797 2.806 0 1.032-.622 1.839-1.492 2.355ZM12 7.516c.093 0 .311-.129.311-.322V4.29c0-.193-.124-.29-.311-.29-.093 0-.311.097-.311.29v2.807c0 .29.218.419.311.419Zm2.579.387 1.492-2.355c.093-.096.093-.322 0-.419-.093-.097-.28 0-.404.097l-1.492 2.387c-.093.097-.093.29 0 .419.125.097.311 0 .404-.129Zm4.382.226c-.093-.097-.186-.226-.404-.097l-2.393 1.323c-.093.097-.186.322-.093.419.093.097.218.194.404.097l2.393-1.323c.093-.129.187-.225.093-.419Zm-9.54-.226c.093.129.279.226.404.129.093-.129.093-.322 0-.419L8.333 5.226c-.124-.194-.311-.194-.404-.097-.093.097-.093.323 0 .419l1.492 2.355Zm-3.978.226c-.218-.097-.404-.097-.404 0-.094.194 0 .29.093.419l2.393 1.323c.186.097.311.097.404-.097.093-.097 0-.322-.093-.419L5.443 8.129Zm8.546 9.194h-3.978v1.129c0 .612.497 1.032.994 1.032V20h1.99v-.516c.497 0 .901-.42.901-.936v-1.225h.093Z"/></svg>
